X:2
T:Ballintore Fancy, The
M:12/8
L:1/8
S:Leo Rowsome
R:single jig
Z:transcribed during IRTRAD Bothy Band Old Hag You Have Killed Me project
Z:id:ng-jigs-8
K:G
|G2 B ~B3 G2 B d2B|G2 B BAG F2A AGF|G2 B ~B3 G2 B d2 B|e2c A2G F2G AGF:|
|B2E ~E3 B2E G2A|B2E ~E3 ~A3 G2A|B2E ~E3 c3 c2B|1 A2G F2G AFD G2 A:|2 A2
G F2G A2c B2A|**
